wp-content/themes/quarkexpeditions/src/assets/svg/star.svg

<svg class="icon icon-star" width="32" height="32" viewBox="0 0 32 32" fill="none" xmlns="http://www.w3.org/2000/svg">
<circle cx="16" cy="16" r="16" fill="#ECEEF2"/>
<path d="M21.0012 24.9954C20.8569 24.996 20.7147 24.9602 20.5863 24.8912L15.9865 22.3629L11.3866 24.8912C11.2373 24.9736 11.0689 25.0105 10.9006 24.9974C10.7323 24.9844 10.5708 24.9221 10.4346 24.8175C10.2984 24.713 10.1928 24.5704 10.1299 24.406C10.067 24.2415 10.0493 24.0619 10.0788 23.8875L10.9808 18.5563L7.26483 14.7686C7.1489 14.6472 7.06665 14.4948 7.02693 14.328C6.9872 14.1612 6.9915 13.9862 7.03935 13.8217C7.09163 13.6534 7.18779 13.5039 7.31692 13.3901C7.44605 13.2762 7.60299 13.2027 7.76991 13.1778L12.9109 12.3919L15.1747 7.53417C15.2486 7.37407 15.3639 7.23905 15.5075 7.14458C15.651 7.05011 15.817 7 15.9865 7C16.1559 7 16.3219 7.05011 16.4655 7.14458C16.609 7.23905 16.7244 7.37407 16.7982 7.53417L19.0891 12.3824L24.2301 13.1683C24.397 13.1932 24.5539 13.2668 24.6831 13.3806C24.8122 13.4944 24.9084 13.6439 24.9606 13.8122C25.0085 13.9767 25.0128 14.1517 24.9731 14.3186C24.9333 14.4854 24.8511 14.6377 24.7352 14.7592L21.0192 18.5468L21.9212 23.878C21.9534 24.0555 21.9365 24.239 21.8726 24.4068C21.8086 24.5746 21.7003 24.7197 21.5604 24.8249C21.3971 24.9451 21.2004 25.005 21.0012 24.9954Z" fill="#232933"/>
</svg>

<svg class="icon icon-star" width="32" height="32" fill="none" xmlns="http://www.w3.org/2000/svg"><circle cx="16" cy="16" r="16" fill="#ECEEF2"/><path d="M21.001 24.995a.868.868 0 0 1-.415-.104l-4.6-2.528-4.6 2.528a.866.866 0 0 1-.951-.073.942.942 0 0 1-.305-.412.991.991 0 0 1-.051-.518l.902-5.332-3.716-3.787a.96.96 0 0 1-.238-.441.992.992 0 0 1 .012-.506.95.95 0 0 1 .278-.432.881.881 0 0 1 .453-.212l5.14-.786 2.265-4.858a.933.933 0 0 1 .332-.39.87.87 0 0 1 .958 0c.144.095.26.23.333.39l2.291 4.848 5.141.786a.883.883 0 0 1 .453.213.95.95 0 0 1 .29.938.961.961 0 0 1-.238.44l-3.716 3.788.902 5.331a.991.991 0 0 1-.048.529.942.942 0 0 1-.313.418.871.871 0 0 1-.559.17Z" fill="#232933"/></svg>
